packages/tokens/icons/inProductSearch/size24Px.svg

<svg viewBox="0 0 24 24" fill="none" xmlns="http://www.w3.org/2000/svg" width="1em" height="1em"><rect x="2.5" y="9.5" width="19" height="5" rx="1.5" stroke="currentColor"/><path d="M19.5 12C19.5 12.4142 19.1642 12.75 18.75 12.75C18.3358 12.75 18 12.4142 18 12C18 11.5858 18.3358 11.25 18.75 11.25C19.1642 11.25 19.5 11.5858 19.5 12Z" stroke="currentColor"/><rect x="3.5" y="16.5" width="4" height="4" rx="0.5" stroke="currentColor"/><line x1="10.5" y1="17.5" x2="19.5" y2="17.5" stroke="currentColor" stroke-linecap="round"/><line x1="10.5" y1="19.5" x2="19.5" y2="19.5" stroke="currentColor" stroke-linecap="round"/><path d="M14.4989 7.84833L14.4989 7.15167C14.5131 6.99614 14.3858 6.86889 14.2303 6.86889H13.679C13.5659 6.37404 13.3679 5.92159 13.1135 5.49743L13.4952 5.11568C13.6083 5.00257 13.6083 4.8329 13.4952 4.71979L12.2935 3.51799C12.1804 3.40488 12.0107 3.40488 11.8976 3.51799L11.5159 3.89974C11.0918 3.64524 10.6394 3.4473 10.1446 3.33419V2.78278C10.1446 2.62725 10.0174 2.5 9.86185 2.5H8.16536C8.00984 2.5 7.88261 2.62725 7.88261 2.78278V3.33419C7.3878 3.4473 6.9354 3.64524 6.51128 3.89974L6.11543 3.51799C6.00233 3.40488 5.83268 3.40488 5.71958 3.51799L4.5179 4.71979C4.4048 4.8329 4.4048 5.00257 4.5179 5.11568L4.89961 5.49743C4.64513 5.92159 4.44721 6.37404 4.33411 6.86889H3.78275C3.62724 6.86889 3.5 7.34447 3.5 7.5L3.5 7.84833" stroke="currentColor" stroke-linecap="round" stroke-linejoin="round"/><path d="M11.5 8C11.5 6.61929 10.3807 5.5 9 5.5C7.61929 5.5 6.5 6.61929 6.5 8" stroke="currentColor" stroke-linecap="round"/></svg>

<svg xmlns="http://www.w3.org/2000/svg" fill="none" viewBox="0 0 24 24" width="1em" height="1em"><rect width="19" height="5" x="2.5" y="9.5" stroke="currentColor" rx="1.5"/><path stroke="currentColor" d="M19.5 12a.75.75 0 1 1-1.5 0 .75.75 0 0 1 1.5 0Z"/><rect width="4" height="4" x="3.5" y="16.5" stroke="currentColor" rx=".5"/><path stroke="currentColor" stroke-linecap="round" d="M10.5 17.5h9m-9 2h9"/><path stroke="currentColor" stroke-linecap="round" stroke-linejoin="round" d="M14.499 7.848v-.696a.263.263 0 0 0-.269-.283h-.551a4.685 4.685 0 0 0-.566-1.372l.382-.381a.273.273 0 0 0 0-.396l-1.201-1.202a.273.273 0 0 0-.396 0l-.382.382a4.681 4.681 0 0 0-1.371-.566v-.551a.284.284 0 0 0-.283-.283H8.165a.284.284 0 0 0-.282.283v.551A4.682 4.682 0 0 0 6.51 3.9l-.396-.382a.273.273 0 0 0-.395 0L4.518 4.72a.273.273 0 0 0 0 .396l.382.381a4.682 4.682 0 0 0-.566 1.372h-.551c-.156 0-.283.475-.283.631v.348"/><path stroke="currentColor" stroke-linecap="round" d="M11.5 8a2.5 2.5 0 0 0-5 0"/></svg>
